X:4
T:Killarney Boys of Pleasure
M:C|
L:1/8
R:reel
D:Fintan Vallely:
H:Usually played in Edor, #348
Z:id:hn-reel-785
K:Ador
A2BG A2Bd|egdB GABd|~e3g ~a3g|egdB GABG|
A2BG A2Bd|eBdB GABd|~e3g abag|1 (3efg dB BAAG:|2 (3efg dB BA~A2||
|:ea~a2 bgag|egdB GABd|~b3z bc'ba|gedB GABd|
ea~a2 bgag|egdB GABd|~b3a bc'ba|1 gedB BA~A2:|2 gedB BAAG||
